!!!OTL: Archaniol Gabriel
**kern
*staff1
=--
*clefG2
*k[b-]
*met(c|)
*M2/2
2g
2g
2dd
2dd
=-
1dd
=-
1cc
=-
1dd
=-
2cc
[2b-
=-
2b-]
2a
=-
1g
=-
1f
=-
2ff
2ff
=-
2ee
2dd
=-
1cc
=-
1b-
=-
1dd
=-
2b-
[2cc
=-
2cc]
2b-
=-
1a
=-
1g
=-
2b-
2b-
=-
2b-
2b-
=-
1b-
=-
!!linebreak:original
1a
=-
1dd
=-
2cc
[2b-
=-
2b-]
2a
=-
1g
=-
1f
=-
2ff
2ff
=-
2ee
2dd
=-
1cc
=-
1b-
=-
1dd
=-
2b-
[2cc
=-
2cc]
2b-
=-
1a
=-
[1g
=-
1g]
=-=
*-
!!title: @{OTL}, @{GTL}, ed. @{ENC}
!!!pag:
!!!GTL: Hymnbook C
!!!EFL: 
!!!YEM: Creative Commons CC/BY/NC/SA 4.0
!!!ENC: Marcin Konik
!!!END: 2015-0m-dd
!!!EED: Marcin Konik
!!!EEV: 
!!!ONB: Encoded in vim by Marcin Konik
!!!CharacterEncoding: utf-8
!!!RDF**kern: l=long note in original notation
!!!RDF**kern: i=editorial accidental
!!muse2ps: z14jc180F
!!!COM: Anonim
!!!CDT: [?]
!!!TXO: Polish
!!!ODT: 
!!!GTL: Hymnbook C
!!!ARL: Opactwo św. Wojciecha, Staniątki 
!!!voices:	1
